X:1
T:Title
%%score { ( 1 3 4 ) | ( 2 5 ) }
L:1/8
M:4/4
K:D
V:1 treble nm="Grand Piano"
V:3 treble 
V:4 treble 
V:2 bass 
V:5 bass 
V:1
 z4 z2[Q:1/4=100] A2 | [FA]3 [FA] [=F^G][^FA][=GB][FA] | [Fd]4 [FA]2 [DF]2 | %3
 [CA]3 [CE] [=C^D][^CE][=DF][EG] | [DF]6 [FA]2 | [FA]3 [FA] [=F^G][^FA][=GB][FA] | %6
 [Fd]4 [FA]2 [FA][=FB] | [Ec]3 [CE] [DB]3 [Ec] |[M:3/4] [CA]6 |[M:1/4] A2 |[M:4/4] d6 z2 | %11
 [FA]4 z4 | z4 [Gc]4 |[M:3/4] A6[K:bass] |[M:1/4][K:treble] A2 | %15
[M:4/4] [Fd]3 [Ec] [Dd][FA][=F^G][^FA] |[M:9/8] B3- B d2- d B2 |[M:4/4] A3 A [CGA]2 [Ge]2 | %18
[M:3/4] d2- [Gd-][Ed-] [Fd]2 |] %19
V:2
 z4 z2 F2 | D,A,DA, D,A,DA, | D,F,B,A, DA,F,D, | A,,A,G,A, F,A,F,C, | D,F,A,B, CB,A,F, | %5
 D,A,DA, D,A,DA, | D,F,B,A, DA,F,D, | E,A,CA, E,^G,B,G, |[M:3/4] A,E, C,E, A,,2 |[M:1/4] A,2 | %10
[M:4/4] [D,A,]2 [D,A,]2 [D,A,]2 z F | z2 B,2 A,,2 G,F, | E,2 A,,2 [E,A,]2 z G | %13
[M:3/4] D,2 ^D,2 E,2 |[M:1/4] A,2 |[M:4/4] [D,A,]3 [G,A,] [F,A,][D,D][D,D][D,D] | %16
[M:9/8][K:treble] [G,DG]3- [G,DG] [G,B,G]2- [G,B,G] [^G,D=F]2 | %17
[M:4/4] [A,DF]3 [A,DF][K:bass] A,,2 [A,,A,]2 |[M:3/4] A,2 B,G, A,2 |] %19
V:3
 x8 | x8 | x8 | x8 | x8 | x8 | x8 | x8 |[M:3/4] x6 |[M:1/4] x2 |[M:4/4] F2 F2 z c .[FB]2 | %11
 A,2 z2 [CEG]2 [A,CE][A,DF] | [A,CG]2 [A,CA]2 z2 z B |[M:3/4] [A,F]2[K:bass] [F,=C]2 [G,^C]2 | %14
[M:1/4][K:treble] x2 |[M:4/4] x8 |[M:9/8] x9 |[M:4/4] x8 |[M:3/4] F2 z2 z2 |] %19
V:4
 x8 | x8 | x8 | x8 | x8 | x8 | x8 | x8 |[M:3/4] x6 |[M:1/4] x2 |[M:4/4] z4 F2 z2 | x8 | z4 z2 A,2 | %13
[M:3/4] x2[K:bass] x4 |[M:1/4][K:treble] x2 |[M:4/4] x8 |[M:9/8] x9 |[M:4/4] x8 |[M:3/4] x6 |] %19
V:5
 x8 | x8 | x8 | x8 | x8 | x8 | x8 | x8 |[M:3/4] x6 |[M:1/4] x2 |[M:4/4] z4 z2 [D,A,]2 | A,,4 z4 | %12
 z4 z2 A,,2 |[M:3/4] x6 |[M:1/4] x2 |[M:4/4] x8 |[M:9/8][K:treble] x9 |[M:4/4] x4[K:bass] x4 | %18
[M:3/4] D,6 |] %19

